src/4-icons/comment.svg

<svg width="260" height="260" viewBox="0 0 260 260" fill="none" xmlns="http://www.w3.org/2000/svg">
<path d="M219.752 201.11C219.622 200.98 218.035 199.238 216.397 197.054C215.565 195.962 214.734 194.765 214.032 193.648C213.355 192.53 212.835 191.465 212.654 190.866C211.977 188.735 211.484 186.238 211.172 184.315C211.146 184.236 211.146 184.158 211.146 184.08C217.048 180.388 222.066 175.786 225.811 170.405C230.153 164.113 232.727 156.729 232.727 148.903C232.727 142.533 231.037 136.423 228.047 130.989C223.549 122.826 216.243 116.143 207.274 111.464C198.278 106.784 187.592 104.132 176.152 104.132C160.89 104.132 146.954 108.864 136.658 116.794C131.51 120.772 127.247 125.556 124.257 130.989C121.267 136.423 119.577 142.507 119.577 148.903C119.577 155.273 121.267 161.383 124.257 166.816C128.755 174.98 136.061 181.663 145.03 186.343C154.026 191.023 164.712 193.675 176.152 193.675C178.752 193.675 181.274 193.493 183.77 193.233C185.668 196.067 188.658 199.758 193 202.748C195.21 204.23 197.628 205.323 200.072 206.206C203.737 207.532 207.456 208.416 210.342 209.015C213.202 209.586 215.204 209.846 215.282 209.873L229.53 211.718L219.755 201.11H219.752ZM198.848 194.09C195.234 191.672 192.505 187.746 191.334 185.692L191.23 185.535L190.685 184.73L188.839 182L185.589 182.495C182.547 182.963 179.401 183.223 176.151 183.223C163.046 183.223 151.269 179.115 143.001 172.718C138.866 169.52 135.591 165.776 133.381 161.746C131.171 157.716 130.001 153.4 129.976 148.851C129.976 144.301 131.172 139.985 133.381 135.956C136.683 129.897 142.403 124.516 149.839 120.667C157.249 116.794 166.349 114.506 176.177 114.506C189.282 114.506 201.059 118.614 209.327 125.01C213.462 128.208 216.737 131.952 218.947 135.982C221.157 140.012 222.327 144.328 222.353 148.877C222.353 154.441 220.585 159.693 217.283 164.477C214.006 169.236 209.171 173.473 203.165 176.724L200.565 178.127L200.461 181.091V181.741L200.486 182.053C200.486 182.131 200.643 183.691 200.981 185.927C201.345 188.164 201.891 191.076 202.801 194.014C203.086 194.872 203.425 195.652 203.789 196.432C203.633 196.38 203.477 196.328 203.321 196.276C201.501 195.599 199.916 194.819 198.849 194.092L198.848 194.09Z" fill="black"/>
<path d="M120.588 177.606H120.198C114.478 177.606 108.888 177.165 103.506 176.332L100.256 175.837L97.5263 179.841L97.4217 179.997C95.2381 183.794 90.3499 190.865 83.4599 195.519C81.1717 197.079 77.9481 198.587 74.4635 199.861C71.3953 200.979 68.1717 201.915 65.0771 202.669C65.8571 201.551 66.6107 200.407 67.3389 199.237C68.9243 196.637 70.3289 193.985 71.2125 191.177C72.6943 186.472 73.6307 181.635 74.2025 177.917C74.7743 174.199 75.0079 171.625 75.0079 171.547L75.0333 171.209L75.0079 170.351L74.9033 167.387L72.3033 165.984C61.6169 160.212 52.9079 152.619 46.9269 143.935C40.9459 135.252 37.6451 125.527 37.6187 115.205C37.6187 106.782 39.8287 98.8 43.8587 91.4154C49.9423 80.339 60.2651 70.6936 73.4987 63.8036C86.7069 56.9136 102.8 52.8582 120.143 52.8582C143.283 52.8582 164.135 60.1118 179.007 71.5782C186.443 77.2982 192.371 84.0583 196.427 91.4418C197.597 93.5736 198.585 95.7572 199.443 97.9936C203.76 99.2936 207.867 100.932 211.715 102.882C210.467 97.1365 208.387 91.5972 205.527 86.4501C198.35 73.2683 186.417 62.2965 171.649 54.6C156.855 46.9036 139.174 42.4836 120.195 42.4836C94.8969 42.4836 71.8869 50.3618 54.9869 63.3618C46.5369 69.8618 39.6205 77.6618 34.8115 86.4501C29.9761 95.2383 27.2715 105.015 27.2715 115.258C27.2715 127.843 31.3533 139.672 38.3997 149.89C44.8479 159.225 53.7661 167.205 64.3743 173.446C64.2443 174.435 64.0879 175.63 63.8543 176.983C63.3079 180.259 62.4761 184.393 61.3061 188.058C60.8379 189.566 59.7979 191.673 58.4715 193.804C56.4951 197.027 53.9469 200.382 51.8933 202.877C50.8797 204.125 49.9687 205.165 49.3451 205.894C49.0333 206.257 48.7733 206.544 48.6169 206.725L48.4351 206.934L48.3833 206.985L38.6069 217.541L52.8551 215.695C52.9587 215.67 58.8351 214.915 66.2451 213.147C69.9369 212.264 74.0451 211.119 78.0497 209.664C82.0543 208.208 85.9533 206.44 89.3343 204.152C97.1343 198.822 102.334 191.802 105.299 187.096C110.161 187.695 115.127 188.033 120.197 188.033C123.811 188.033 127.399 187.851 130.909 187.538C127.009 184.548 123.525 181.22 120.587 177.606H120.588Z" fill="black"/>
</svg>

<svg width="260" height="260" fill="none" xmlns="http://www.w3.org/2000/svg"><path d="M219.752 201.11c-.13-.13-1.717-1.872-3.355-4.056a47.369 47.369 0 0 1-2.365-3.406c-.677-1.118-1.197-2.183-1.378-2.782-.677-2.131-1.17-4.628-1.482-6.551-.026-.079-.026-.157-.026-.235 5.902-3.692 10.92-8.294 14.665-13.675 4.342-6.292 6.916-13.676 6.916-21.502 0-6.37-1.69-12.48-4.68-17.914-4.498-8.163-11.804-14.846-20.773-19.525-8.996-4.68-19.682-7.332-31.122-7.332-15.262 0-29.198 4.732-39.494 12.662-5.148 3.978-9.411 8.762-12.401 14.195-2.99 5.434-4.68 11.518-4.68 17.914 0 6.37 1.69 12.48 4.68 17.913 4.498 8.164 11.804 14.847 20.773 19.527 8.996 4.68 19.682 7.332 31.122 7.332 2.6 0 5.122-.182 7.618-.442 1.898 2.834 4.888 6.525 9.23 9.515 2.21 1.482 4.628 2.575 7.072 3.458 3.665 1.326 7.384 2.21 10.27 2.809 2.86.571 4.862.831 4.94.858l14.248 1.845-9.775-10.608h-.003Zm-20.904-7.02c-3.614-2.418-6.343-6.344-7.514-8.398l-.104-.157-.545-.805-1.846-2.73-3.25.495a61.969 61.969 0 0 1-9.438.728c-13.105 0-24.882-4.108-33.15-10.505-4.135-3.198-7.41-6.942-9.62-10.972-2.21-4.03-3.38-8.346-3.405-12.895 0-4.55 1.196-8.866 3.405-12.895 3.302-6.059 9.022-11.44 16.458-15.289 7.41-3.873 16.51-6.161 26.338-6.161 13.105 0 24.882 4.108 33.15 10.504 4.135 3.198 7.41 6.942 9.62 10.972 2.21 4.03 3.38 8.346 3.406 12.895 0 5.564-1.768 10.816-5.07 15.6-3.277 4.759-8.112 8.996-14.118 12.247l-2.6 1.403-.104 2.964v.65l.025.312c0 .078.157 1.638.495 3.874.364 2.237.91 5.149 1.82 8.087.285.858.624 1.638.988 2.418l-.468-.156c-1.82-.677-3.405-1.457-4.472-2.184l-.001-.002Z" fill="#000"/><path d="M120.588 177.606h-.39c-5.72 0-11.31-.441-16.692-1.274l-3.25-.495-2.73 4.004-.104.156c-2.184 3.797-7.072 10.868-13.962 15.522-2.288 1.56-5.512 3.068-8.996 4.342-3.069 1.118-6.292 2.054-9.387 2.808a78.373 78.373 0 0 0 2.262-3.432c1.585-2.6 2.99-5.252 3.874-8.06 1.481-4.705 2.418-9.542 2.99-13.26.571-3.718.805-6.292.805-6.37l.025-.338-.025-.858-.105-2.964-2.6-1.403c-10.686-5.772-19.395-13.365-25.376-22.049-5.981-8.683-9.282-18.408-9.308-28.73 0-8.423 2.21-16.405 6.24-23.79 6.083-11.076 16.406-20.721 29.64-27.611 13.208-6.89 29.301-10.946 46.644-10.946 23.14 0 43.992 7.254 58.864 18.72 7.436 5.72 13.364 12.48 17.42 19.864a53.066 53.066 0 0 1 3.016 6.552 74.957 74.957 0 0 1 12.272 4.888 60.089 60.089 0 0 0-6.188-16.432c-7.177-13.182-19.11-24.154-33.878-31.85-14.794-7.696-32.475-12.116-51.454-12.116-25.298 0-48.308 7.878-65.208 20.878-8.45 6.5-15.367 14.3-20.175 23.088-4.836 8.788-7.54 18.565-7.54 28.808 0 12.585 4.081 24.414 11.128 34.632 6.448 9.335 15.366 17.315 25.974 23.556-.13.989-.286 2.184-.52 3.537-.546 3.276-1.378 7.41-2.548 11.075-.468 1.508-1.508 3.615-2.834 5.746-1.977 3.223-4.525 6.578-6.579 9.073-1.013 1.248-1.924 2.288-2.548 3.017-.312.363-.572.65-.728.831l-.182.209-.052.051-9.776 10.556 14.248-1.846c.104-.025 5.98-.78 13.39-2.548 3.692-.883 7.8-2.028 11.805-3.483 4.004-1.456 7.903-3.224 11.284-5.512 7.8-5.33 13-12.35 15.965-17.056 4.862.599 9.828.937 14.898.937 3.614 0 7.202-.182 10.712-.495-3.9-2.99-7.384-6.318-10.322-9.932h.001Z" fill="#000"/></svg>
